X:169
T: HINAUS HINAUS INS FREIE
N: B0203
O: Europa, Mitteleuropa, Deutschland
R: Jahreszeiten - Lied, Fruehling
M: 6/8
L: 1/16
K: F
C2 | F4F2c4c2 | A6G4
G2 | A4A2B2c2d2 | c6z4
c2 | f4f2e2d2c2 | d6c6
B6A2c2f2 | c3dcBA4G2 | F6z4

